X:60
T:Nancy's Fancy
C:"Irish"
S:Petrie's Third Collection of Strathspey Reels and Country Dances &c.
Z:Steve Wyrick <sjwyrick'at'gmail'dot'com>, 7/31/05
N:Petrie's Third Collection, page 24
L:1/8
M:2/4
R:Polka?
K:D
"^Slow"
A|df Tf2|ge Te2|fdcd|e/d/e/f/ eA|df Tf2|geeg|fe/d/ c/d/e/f/|d2 d::A/B//c//|
dcBA|GFED|TBAdF|E2E(A/B//c//)|dcBA|GFED|Ad c/d/e/f/|d2d2:|]
